X:54
T:Edi beo thu hevene quene
L:1/8
M:3/4
N:Anon English C13
Z:Andy Hornby
K:G
G2|G4d2|d2c2B2|A4e2|d4G2|A2B2c2|B2A2G2|F2E2F2|G4:|
G2|c4c2|B2A2G2|F2E2F2|G4G2|c4c2|B2A2G2|F2E2F2|
G4B2|d4e2|d2c2B2|A4e2|d4G2|A2B2c2|B2A2G2|F2E2F2|G4|]





